X:1
T:Title
%%score 1 2
L:1/8
Q:1/4=93
M:4/4
K:Ab
V:1 treble nm="Grand Piano, Soprano"
V:2 bass nm="Choir Pad, Diyarbakır, William Dale 191"
V:1
 [CE]2 [Ec]2 [=EB][FA] [Fc]<[FA] | [DF]2 [DA]2 [DA]>[DF] [CE]2 | [CE]2 [CE]2 [EA][EB] [Ec]2 | %3
w: By~William~Thomas~Dale,~1910 * * * * *|||
 [DB][CA] [CF]2 [=DB][Dc] [EB]2 | [CE]2 [Ec]2 [=EB][FA] [FB]<[FA] | [DF]2 [DA]2 [DA]>[DF] [CE]2 | %6
w: |||
 [CE]2 [CE]2 [EA][EB] [Ec]2 | [DB][CA] [DB]2 [Ec]>[DB] [CA]2 | [Ec]2 [Ae]2 [Af][Ae] [Ec]2 | %9
w: |||
 [Ec][DB] [CA]2 [CA][EB] [Ec]2 | [Ec]2 [Ae]2 [Af][Ae] [Ec]2 | [DB][CA] [CF]2 [=DB][Dc] [EB]2 | %12
w: |||
 [CE]2 [Ec]2 [=EB][FA] [FB]<[FA] | [DF]2 [DA]2 [DA]>[DF] [CE]2 | [CE]2 [CE]2 [EA][EB] [Ec]2 | %15
w: |||
 [DB][CA] [DB]2 [Ec]>[DB] [CA]2- | [CA]6 z2 |] %17
w: ||
V:2
 [A,,A,]2 [A,,A,]2 [C,G,][C,A,] [D,A,]<[D,A,] | [D,A,]2 [D,F,]2 [D,F,]>[D,A,] [A,,A,]2 | %2
 [A,,A,]2 [A,,A,]2 [C,A,][E,G,] A,2 | [E,G,][F,A,] [F,A,]2 [B,,A,][B,,A,] [E,G,]2 | %4
 [A,,A,]2 [A,,A,]2 [C,G,][C,A,] [D,A,]<[D,A,] | [D,A,]2 [D,F,]2 [D,F,]>[D,A,] [A,,A,]2 | %6
 [A,,A,]2 [A,,A,]2 [C,A,][E,G,] A,2 | [E,G,][F,A,] [D,F,]2 [E,A,]>[E,G,] [A,,A,]2 | %8
 [A,,A,]2 [A,C]2 [A,D][A,C] A,2 | A,[E,G,] [F,A,]2 [F,A,][E,G,] A,2 | A,2 [A,C]2 [A,D][A,C] A,2 | %11
 [E,G,][F,A,] [F,A,]2 [B,,A,][B,,A,] [E,G,]2 | [A,,A,]2 [A,,A,]2 [C,G,][C,A,] [D,A,]<[D,A,] | %13
 [D,A,]2 [D,F,]2 [D,F,]>[D,A,] [A,,A,]2 | [A,,A,]2 [A,,A,]2 [C,A,][E,G,] A,2 | %15
 [E,G,][F,A,] [D,F,]2 [E,A,]>[E,G,] [A,,A,]2- | [A,,A,]6 z2 |] %17

